X:2990
T:Springlek efter Troskari Erik Persson
S:efter Troskari Erik Persson
R:Polska
O:Västra Fors, Malung, Dalarna
B:EÖ, nr 340
M:3/4
L:1/8
K:Dm
|: e3/2f/2 d3/2^c/2 A3/2c/2 | e3/2f/2 (d^c) A3/2c/2 | e3/2f/2 d3/2^c/2 A3/2c/2 | e2 [A4a4] :|
|: f3/2d/2 f3/2a/2 Pa3/2g/2 | e3/2c/2 e3/2g/2 Pg3/2e/2 | f3/2d/2 (f3/2a/2) Pa3/2g/2 | e3/2c/2 (e3/2g/2) Pg3/2e/2 | f2 (d^c) A3/2c/2 | ^c2 [d4D4] :|
(:musicend:)
(:music:)
